images/icons/last-fm.svg

<svg fill="none" height="24" viewBox="0 0 24 24" width="24" xmlns="http://www.w3.org/2000/svg"><path d="m9.70439 14.4846.87981 2.3916s-1.48477 1.457-4.59086 1.457c-3.84892 0-5.99334-2.2542-5.99334-6.433 0-4.34356 2.14442-6.9002 6.18555-6.9002 3.65639 0 5.49855 1.31955 6.65295 4.89348l.9072 2.74892c.66 2.007 1.8144 3.464 4.591 3.464 1.8695 0 2.859-.4124 2.859-1.4294 0-.7974-.4672-1.3746-1.8692-1.7046l-1.8696-.4397c-2.2816-.5498-3.1888-1.732-3.1888-3.60142 0-2.99657 2.4193-3.93128 4.8934-3.93128 2.8041 0 4.5085 1.01718 4.7284 3.49136l-2.749.32997c-.1101-1.18212-.8248-1.67701-2.1443-1.67701-1.2098 0-1.9519.54987-1.9519 1.48459 0 .82476.3573 1.31966 1.5668 1.59459l1.7594.3848c2.3643.5499 3.6291 1.7046 3.6291 3.9314 0 2.749-2.3091 3.7936-5.7183 3.7936-4.756 0-6.4055-2.1443-7.285-4.8108l-.8799-2.7492c-.65991-2.00695-1.42959-3.5739-3.84868-3.5739-1.67722 0-3.38151 1.2096-3.38151 4.591 0 2.6392 1.34694 4.2887 3.24406 4.2887 2.144 0 3.57372-1.5945 3.57372-1.5945z" fill="#fff"/></svg>

<svg width="24" height="24" viewBox="0 0 24 24" fill="none" xmlns="http://www.w3.org/2000/svg">
<path d="M9.70439 14.4846L10.5842 16.8762C10.5842 16.8762 9.09943 18.3332 5.99334 18.3332C2.14442 18.3332 0 16.079 0 11.9002C0 7.55664 2.14442 5 6.18555 5C9.84194 5 11.6841 6.31955 12.8385 9.89348L13.7457 12.6424C14.4057 14.6494 15.5601 16.1064 18.3367 16.1064C20.2062 16.1064 21.1957 15.694 21.1957 14.677C21.1957 13.8796 20.7285 13.3024 19.3265 12.9724L17.4569 12.5327C15.1753 11.9829 14.2681 10.8007 14.2681 8.93128C14.2681 5.93471 16.6874 5 19.1615 5C21.9656 5 23.67 6.01718 23.8899 8.49136L21.1409 8.82133C21.0308 7.63921 20.3161 7.14432 18.9966 7.14432C17.7868 7.14432 17.0447 7.69419 17.0447 8.62891C17.0447 9.45367 17.402 9.94857 18.6115 10.2235L20.3709 10.6083C22.7352 11.1582 24 12.3129 24 14.5397C24 17.2887 21.6909 18.3333 18.2817 18.3333C13.5257 18.3333 11.8762 16.189 10.9967 13.5225L10.1168 10.7733C9.45689 8.76635 8.68721 7.1994 6.26812 7.1994C4.5909 7.1994 2.88661 8.409 2.88661 11.7904C2.88661 14.4296 4.23355 16.0791 6.13067 16.0791C8.27467 16.0791 9.70439 14.4846 9.70439 14.4846Z" fill="white"/>
</svg>
